icons/registered-fill.svg

<svg xmlns="http://www.w3.org/2000/svg" width="24" height="24" fill="none"><g clip-path="url(#a)"><g><path fill="#121212" d="M12 2C17.523 2 22 6.477 22 12C22 17.523 17.523 22 12 22C6.477 22 2 17.523 2 12C2 6.477 6.477 2 12 2ZM12.5 7H8V17H10V14H12.217L14.397 17H16.869L14.319 13.49C14.9578 13.1019 15.4556 12.5194 15.7394 11.8279C16.0233 11.1365 16.0783 10.3723 15.8965 9.64723C15.7146 8.92222 15.3054 8.27447 14.7288 7.79883C14.1521 7.32319 13.4384 7.04466 12.692 7.004L12.5 7ZM12.5 9C12.8729 9.00002 13.2324 9.13892 13.5084 9.38962C13.7844 9.64032 13.9572 9.98484 13.993 10.356L14 10.5L13.993 10.644C13.9598 10.9906 13.807 11.3149 13.5609 11.5612C13.3148 11.8075 12.9906 11.9605 12.644 11.994L12.5 12H10V9H12.5Z"/></g></g><defs><clipPath id="a"><rect width="24" height="24" fill="white"/></clipPath></defs></svg>

<svg width="24" height="24" fill="none" xmlns="http://www.w3.org/2000/svg"><g clip-path="url(#a)"><path d="M12 2c5.523 0 10 4.477 10 10s-4.477 10-10 10S2 17.523 2 12 6.477 2 12 2Zm.5 5H8v10h2v-3h2.217l2.18 3h2.472l-2.55-3.51a3.5 3.5 0 0 0-1.627-6.486L12.5 7Zm0 2a1.5 1.5 0 0 1 1.493 1.356L14 10.5l-.007.144a1.5 1.5 0 0 1-1.349 1.35L12.5 12H10V9h2.5Z" /></g><defs><clipPath id="a"><path fill="#fff" d="M0 0h24v24H0z"/></clipPath></defs></svg>
